X: 1
T: Left-Handed Fiddler
C: J.S.Skinner
N: H&C p.95, Battlefield's version p.31, Hunter 240)
Z: John Chambers <jc:trillian.mit.edu>
M: C|
L: 1/8
K: A
|: d \
| "A"cAce {g}a2ed | cAEA "E7"GB-Bd | "A"cAce ae"D"fd | "E7"ecdB "A"cAAd |
| "A"cAce {g}a2ed | cAEA "E7"GB-BG | "A"AcBd cedf | "E7"ecdB "A"cAA :|
|: g \
| "A"~a2ca caAa | caAa "E7"BcdB | "A"~a2ca caAa | "E7"BcdB "A"cAAg | "A"~a2ca caAa |
| caAa "E7"BcdB |1 "A"~AEcA dBec | "D"fd"E7"ge "A"{g}aAA :|2 "A"cAdB eagf | "E7"ecdB "A"cAA |]
